X: 1
T: the Annex
C: Jake Charron
S: as played by Cynthia MacLeod
S: Page from Concord Slow Scottish Session collection
R: reel
Z: 2016 John Chambers <jc:trillian.mit.edu>
M: C|
L: 1/8
K: A
g |\
ac c/c/c dcdf | ec c/c/c BAFE |\
DFAc     dcdf | ecAc     B3   ||
g |\
ac c/c/c dcdf | ec c/c/c BAFE |\
DFAc     dcdf | ecAc     A3   :|
|: g |\
fc c/c/c defg | a2eg fece |\
defg     afge | cffe f3   ||
g |\
fc c/c/c defg | a2eg fece |\
defg     aece | dBGB A3   :|
